outline/svg/view_list.svg

<svg xmlns="http://www.w3.org/2000/svg" width="24" height="24"><path opacity=".87" fill="none" d="M0 0h24v24H0V0z"/><g fill="currentColor"><path d="M3 5v14h17V5H3zm4 2v2H5V7h2zm-2 6v-2h2v2H5zm0 2h2v2H5v-2zm13 2H9v-2h9v2zm0-4H9v-2h9v2zm0-4H9V7h9v2z"/></g></svg>

<?xml version="1.0" encoding="utf-8"?>
<!-- Generator: Adobe Illustrator 19.1.0, SVG Export Plug-In . SVG Version: 6.00 Build 0)  -->
<svg version="1.1" xmlns="http://www.w3.org/2000/svg" xmlns:xlink="http://www.w3.org/1999/xlink" x="0px" y="0px" width="24px"
	 height="24px" viewBox="0 0 24 24" enable-background="new 0 0 24 24" xml:space="preserve">
<g id="Bounding_Boxes">
	<g id="ui_x5F_spec_x5F_header_copy_3">
	</g>
	<path opacity="0.87" fill="none" d="M0,0h24v24H0V0z"/>
</g>
<g id="Outline" fill="currentColor">
	<g id="ui_x5F_spec_x5F_header">
	</g>
	<path d="M3,5v14h17V5H3z M7,7v2H5V7H7z M5,13v-2h2v2H5z M5,15h2v2H5V15z M18,17H9v-2h9V17z M18,13H9v-2h9V13z M18,9H9V7h9V9z"/>
</g>
</svg>
